img/icon-puzzle.svg

<svg width="14" height="14" viewBox="0 0 14 14" fill="none" xmlns="http://www.w3.org/2000/svg">
<path d="M9.29505 3.39014L9.29403 3.39184C9.21732 3.52224 9.23997 3.6748 9.3026 3.7856C9.36536 3.89663 9.48485 3.99498 9.63809 3.99498H12.455V6.33177C12.2418 6.24863 12.0122 6.19498 11.765 6.19498C10.6445 6.19498 9.73494 7.10459 9.73494 8.225C9.73494 9.34541 10.6445 10.255 11.765 10.255C12.0129 10.255 12.2426 10.1982 12.455 10.114V12.455H3.99498V9.63809C3.99498 9.48595 3.89907 9.3665 3.78929 9.30273C3.67992 9.2392 3.52938 9.21501 3.39906 9.28783L3.39904 9.28779L3.3961 9.28954C3.21193 9.39916 3.00722 9.46004 2.78002 9.46004C2.0964 9.46004 1.54498 8.91286 1.54498 8.225C1.54498 7.53714 2.0964 6.98996 2.78002 6.98996C3.00892 6.98996 3.21341 7.04689 3.3961 7.15564L3.39608 7.15568L3.39906 7.15735C3.52931 7.23013 3.67965 7.20594 3.78869 7.1434C3.89777 7.08084 3.99498 6.96282 3.99498 6.81191V3.99498H6.81191C6.96515 3.99498 7.08464 3.89663 7.1474 3.7856C7.21003 3.6748 7.23268 3.52224 7.15597 3.39184L7.15598 3.39183L7.15495 3.39014C7.047 3.2131 6.98996 3.00917 6.98996 2.78002C6.98996 2.0964 7.53714 1.54498 8.225 1.54498C8.91286 1.54498 9.46004 2.0964 9.46004 2.78002C9.46004 3.00917 9.403 3.2131 9.29505 3.39014ZM8.225 0.75C7.10438 0.75 6.19498 1.66463 6.19498 2.78002C6.19498 2.92755 6.21334 3.06651 6.24392 3.2H3.59508C3.48654 3.2 3.38852 3.24988 3.3192 3.3192C3.24988 3.38852 3.2 3.48654 3.2 3.59508V6.24392C3.06651 6.21334 2.92755 6.19498 2.78002 6.19498C1.66463 6.19498 0.75 7.10438 0.75 8.225C0.75 9.34562 1.66463 10.255 2.78002 10.255C2.92755 10.255 3.06651 10.2367 3.2 10.2061V12.8549C3.2 12.9635 3.24988 13.0615 3.3192 13.1308C3.38852 13.2001 3.48654 13.25 3.59508 13.25H12.8549C12.9635 13.25 13.0615 13.2001 13.1308 13.1308C13.2001 13.0615 13.25 12.9635 13.25 12.8549V9.44035C13.25 9.2874 13.1606 9.14011 13.0171 9.07558C12.8758 9.01197 12.7018 9.03906 12.5872 9.14561C12.3684 9.34217 12.08 9.46004 11.765 9.46004C11.0768 9.46004 10.5299 8.91315 10.5299 8.225C10.5299 7.53685 11.0768 6.98996 11.765 6.98996C12.0812 6.98996 12.3693 7.10383 12.5872 7.29957C12.7012 7.4056 12.8703 7.43351 13.0123 7.3696C13.1511 7.30716 13.25 7.16287 13.25 7.00965V3.59508C13.25 3.48654 13.2001 3.38852 13.1308 3.3192C13.0615 3.24988 12.9635 3.2 12.8549 3.2H10.2061C10.2367 3.06651 10.255 2.92755 10.255 2.78002C10.255 1.66463 9.34562 0.75 8.225 0.75Z" fill="white" stroke="white" stroke-width="0.25"/>
</svg>

<svg width="14" height="14" fill="none" xmlns="http://www.w3.org/2000/svg"><path d="M9.295 3.39l-.001.002a.396.396 0 00.009.394c.062.11.182.209.335.209h2.817v2.337a1.887 1.887 0 00-.69-.137 2.03 2.03 0 000 4.06c.248 0 .478-.057.69-.141v2.341h-8.46V9.638a.395.395 0 00-.206-.335.396.396 0 00-.39-.015h0l-.003.002a1.23 1.23 0 01-1.851-1.065A1.23 1.23 0 012.78 6.99c.229 0 .433.057.616.166h0l.003.001c.13.073.28.049.39-.014a.39.39 0 00.206-.331V3.995h2.817a.393.393 0 00.335-.21.396.396 0 00.009-.393h0l-.001-.002a1.152 1.152 0 01-.165-.61 1.23 1.23 0 011.235-1.235A1.23 1.23 0 019.46 2.78c0 .23-.057.433-.165.61zM8.225.75c-1.12 0-2.03.915-2.03 2.03 0 .148.018.287.049.42H3.595a.395.395 0 00-.276.12.395.395 0 00-.119.275v2.649a1.868 1.868 0 00-.42-.049c-1.115 0-2.03.91-2.03 2.03 0 1.12.915 2.03 2.03 2.03.148 0 .287-.018.42-.049v2.649c0 .108.05.207.12.276a.39.39 0 00.275.119h9.26c.108 0 .207-.05.276-.12a.39.39 0 00.119-.275V9.44c0-.153-.09-.3-.233-.364a.4.4 0 00-.43.07 1.226 1.226 0 01-.822.314 1.227 1.227 0 01-1.235-1.235c0-.688.547-1.235 1.235-1.235.316 0 .604.114.822.31a.392.392 0 00.425.07.405.405 0 00.238-.36V3.595a.395.395 0 00-.12-.276.395.395 0 00-.275-.119h-2.649c.03-.133.049-.272.049-.42 0-1.115-.91-2.03-2.03-2.03z" fill="#fff" stroke="#fff" stroke-width=".25"/></svg>
